packages/icons/svg/Outline/eye-off.svg

<svg fill="none" height="24" viewBox="0 0 24 24" width="24" xmlns="http://www.w3.org/2000/svg"><path clip-rule="evenodd" d="m12 13.5001c-.827 0-1.5-.673-1.5-1.5 0-.0131.003-.0259.006-.0387.0028-.0117.0055-.0234.006-.0353l1.562 1.562c-.0119.0004-.0236.0032-.0353.0059-.0128.0031-.0256.0061-.0387.0061zm-7.29302-10.20709c-.391-.391-1.023-.391-1.414 0s-.391 1.023 0 1.414l5.63 5.62999c-.276.509-.423 1.074-.423 1.663 0 1.93 1.57002 3.5 3.50002 3.5.589 0 1.154-.147 1.663-.423l5.63 5.63c.195.195.451.293.707.293s.512-.098.707-.293c.391-.391.391-1.023 0-1.414zm7.51272 13.70449c-4.30504.1-7.11504-3.583-8.04704-5.002.457-.714 1.223-1.76 2.283-2.71096l-1.411-1.412c-1.522 1.389-2.498 2.90696-2.912 3.62996-.177.308-.177.687 0 .995.629 1.097 4.029 6.502 9.89204 6.502.082 0 .164-.001.246-.003 1.184-.03 2.256-.286 3.227-.67l-1.58-1.58c-.535.142-1.098.236-1.698.251zm-.49-11.99406c5.975-.187 9.5 5.38696 10.138 6.49896.176.308.176.687 0 .995-.415.723-1.391 2.241-2.913 3.63l-1.411-1.412c1.06-.951 1.827-1.997 2.283-2.711-.932-1.419-3.755-5.10996-8.046-5.00196-.6.015-1.163.109-1.699.251l-1.58002-1.58c.972-.384 2.04302-.64 3.22802-.67z" fill="#6b7280" fill-rule="evenodd"/></svg>

<svg width="24" height="24" viewBox="0 0 24 24" fill="none" xmlns="http://www.w3.org/2000/svg">
<g id="Icon/Outline/eye-off">
<path id="Mask" fill-rule="evenodd" clip-rule="evenodd" d="M12 13.5C11.173 13.5 10.5 12.827 10.5 12C10.5 11.9869 10.5031 11.9741 10.5061 11.9613L10.5061 11.9613C10.5088 11.9496 10.5116 11.9379 10.512 11.926L12.074 13.488C12.0621 13.4885 12.0504 13.4912 12.0388 13.494C12.0259 13.497 12.0131 13.5 12 13.5ZM4.70705 3.29301C4.31605 2.90201 3.68405 2.90201 3.29305 3.29301C2.90205 3.68401 2.90205 4.31601 3.29305 4.70701L8.92305 10.337C8.64705 10.846 8.50005 11.411 8.50005 12C8.50005 13.93 10.0701 15.5 12 15.5C12.589 15.5 13.154 15.353 13.663 15.077L19.293 20.707C19.488 20.902 19.744 21 20 21C20.2561 21 20.5121 20.902 20.7071 20.707C21.0981 20.316 21.0981 19.684 20.7071 19.293L4.70705 3.29301ZM12.2198 16.9976C7.91475 17.0976 5.10475 13.4146 4.17275 11.9956C4.62975 11.2816 5.39575 10.2356 6.45575 9.28461L5.04475 7.87261C3.52275 9.26161 2.54675 10.7796 2.13275 11.5026C1.95575 11.8106 1.95575 12.1896 2.13275 12.4976C2.76175 13.5946 6.16175 18.9996 12.0247 18.9996C12.1067 18.9996 12.1888 18.9986 12.2708 18.9966C13.4548 18.9666 14.5268 18.7106 15.4978 18.3266L13.9178 16.7466C13.3828 16.8886 12.8198 16.9826 12.2198 16.9976ZM11.7297 5.00341C17.7048 4.81641 21.2298 10.3904 21.8678 11.5024C22.0438 11.8104 22.0438 12.1894 21.8678 12.4974C21.4528 13.2204 20.4767 14.7384 18.9548 16.1274L17.5437 14.7154C18.6037 13.7644 19.3708 12.7184 19.8267 12.0044C18.8947 10.5854 16.0717 6.89441 11.7808 7.00241C11.1807 7.01741 10.6178 7.11141 10.0817 7.25341L8.50175 5.67341C9.47375 5.28941 10.5448 5.03341 11.7297 5.00341Z" fill="#000000"/>
</g>
</svg>
